X:265
T:Piper's Despair, The
R:reel
Z:Transcribed by Dave Marshall
M:C|
K:Edor
|:EFGA BAFA|BdAd dBAF|D2FD ADFA|BdAd dBAF|
EFGA BAFA|BdAd dBAF|DEFA dfaf| gfed Be~e2:|
|:e2ge begf|efga bgaf|d~f3 a~f3|dfaf edBd|
e2ge begf|efga bgaf|~d3f abaf| gfed Be~e2:|
